svg/400/outlined/arming_countdown-fill.svg

<svg xmlns="http://www.w3.org/2000/svg" width="48" height="48" viewBox="0 -960 960 960"><path d="M480-325q72.917 0 123.958-51.042Q655-427.083 655-500q0-72.083-51.5-122.542Q552-673 480-675v50q52 1 88.5 37.235 36.5 36.236 36.5 88Q605-448 568.542-411.5 532.083-375 480-375q-33.367 0-62.183-16Q389-407 372-436l-43 24q24 40 63.806 63.5T480-325ZM330.116-471Q341-471 348-478.116q7-7.117 7-18Q355-507 347.884-514q-7.117-7-18-7Q319-521 312-513.884q-7 7.117-7 18Q305-485 312.116-478q7.117 7 18 7Zm22-84Q363-555 370-562.116q7-7.117 7-18Q377-591 369.884-598q-7.117-7-18-7Q341-605 334-597.884q-7 7.117-7 18Q327-569 334.116-562q7.117 7 18 7Zm58-55Q421-610 428-617.116q7-7.117 7-18Q435-646 427.884-653q-7.117-7-18-7Q399-660 392-652.884q-7 7.117-7 18Q385-624 392.116-617q7.117 7 18 7ZM480-81q-140-35-230-162.5T160-523v-238l320-120 320 120v238q0 152-90 279.5T480-81Z"/></svg>

<svg xmlns="http://www.w3.org/2000/svg" width="48" height="48" viewBox="0 -960 960 960"><path d="M480-325q72.92 0 123.96-51.04Q655-427.08 655-500q0-72.08-51.5-122.54Q552-673 480-675v50q52 1 88.5 37.24 36.5 36.23 36.5 88 0 51.76-36.46 88.26Q532.08-375 480-375q-33.37 0-62.18-16Q389-407 372-436l-43 24q24 40 63.81 63.5Q432.61-325 480-325ZM330.12-471q10.88 0 17.88-7.12 7-7.11 7-18 0-10.88-7.12-17.88-7.11-7-18-7-10.88 0-17.88 7.12-7 7.11-7 18 0 10.88 7.12 17.88 7.11 7 18 7Zm22-84q10.88 0 17.88-7.12 7-7.11 7-18 0-10.88-7.12-17.88-7.11-7-18-7-10.88 0-17.88 7.12-7 7.11-7 18 0 10.88 7.12 17.88 7.11 7 18 7Zm58-55q10.88 0 17.88-7.12 7-7.11 7-18 0-10.88-7.12-17.88-7.11-7-18-7-10.88 0-17.88 7.12-7 7.11-7 18 0 10.88 7.12 17.88 7.11 7 18 7ZM480-81q-140-35-230-162.5T160-523v-238l320-120 320 120v238q0 152-90 279.5T480-81Z"/></svg>
